packages/swarm-icons/src/icons/solid/Camera.svg

<svg xmlns="http://www.w3.org/2000/svg" width="18" height="18" viewBox="0 0 18 18">
  <path fill="#A2A2A2" d="M3,4.18181818 L4.82845261,4.18181818 C5.16280579,4.18181818 5.47503712,4.01471705 5.6605029,3.73651838 L6.22444875,2.89059961 C6.5953803,2.33420227 7.21984296,2 7.88854934,2 L10.1114507,2 C10.780157,2 11.4046197,2.33420227 11.7755513,2.89059961 L12.3394971,3.73651838 C12.5249629,4.01471705 12.8371942,4.18181818 13.1715474,4.18181818 L15,4.18181818 C16.1045695,4.18181818 17,5.07724868 17,6.18181818 L17,13.0909091 C17,14.1954786 16.1045695,15.0909091 15,15.0909091 L3,15.0909091 C1.8954305,15.0909091 1,14.1954786 1,13.0909091 L1,6.18181818 C1,5.07724868 1.8954305,4.18181818 3,4.18181818 Z M9,13.5 C11.209139,13.5 13,11.709139 13,9.5 C13,7.290861 11.209139,5.5 9,5.5 C6.790861,5.5 5,7.290861 5,9.5 C5,11.709139 6.790861,13.5 9,13.5 Z M9,12.5 C7.34314575,12.5 6,11.1568542 6,9.5 C6,7.84314575 7.34314575,6.5 9,6.5 C10.6568542,6.5 12,7.84314575 12,9.5 C12,11.1568542 10.6568542,12.5 9,12.5 Z"/>
</svg>

<svg xmlns="http://www.w3.org/2000/svg" width="18" height="18"><path fill="#A2A2A2" d="M3 4.182h1.828a1 1 0 00.833-.445l.563-.846A2 2 0 017.89 2h2.222a2 2 0 011.665.89l.563.847a1 1 0 00.833.445H15a2 2 0 012 2v6.909a2 2 0 01-2 2H3a2 2 0 01-2-2V6.18a2 2 0 012-2zM9 13.5a4 4 0 100-8 4 4 0 000 8zm0-1a3 3 0 110-6 3 3 0 010 6z"/></svg>
